X:261
T: Henslein
N: A0304B
O: Europa, Mitteleuropa, Deutschland
N: Schmeltzels Quodl. 1544 No. 9
R: Romanze, Ballade, Lied
M: 3/2
L: 1/4
K: F
F2 | A4A2 | F4F2 | G4G2 | F4z2
A4A2 | F4F2 | G4G2 | F4
B2 | A3GF2 | G3FE2 | F2F2G2 | F4

